X: 244
T: A Laxity Of Morals
R: reel
M: 4/4
K: Fmajor
A2 cA dA cA|FA cA BA GA|FA cA dA ce|fe de cd Bc|
A2 cA dA cA|FA cA BA GA|FA cA dA ce|fe de cd eg|
_g2 de ce e=g|_g2 de c=B Ae|_g2 de ce e=g|fe de cd eg|
_g2 de ce e=g|_g2 de c=B Ae|_g2 de ce e=g|fe de cd _Bc|

